icons/alert-fill-24.svg

<svg xmlns="http://www.w3.org/2000/svg" width="24" height="24" viewBox="0 0 24 24"><path d="M9.836 3.244c.963-1.665 3.365-1.665 4.328 0l8.967 15.504c.963 1.667-.24 3.752-2.165 3.752H3.034c-1.926 0-3.128-2.085-2.165-3.752zM12 8.5a.75.75 0 00-.75.75v4.5a.75.75 0 001.5 0v-4.5A.75.75 0 0012 8.5zm1 9a1 1 0 10-2 0 1 1 0 002 0z"/></svg>

<svg xmlns="http://www.w3.org/2000/svg" width="24" height="24" viewBox="0 0 24 24">
  <defs/>
  <path d="M9.836,3.244 C10.799,1.579 13.201,1.579 14.164,3.244 L23.131,18.748 C24.094,20.415 22.891,22.5 20.966,22.5 L3.034,22.5 C1.108,22.5 -0.094,20.415 0.869,18.748 Z M12,8.5 C11.586,8.5 11.25,8.836 11.25,9.25 L11.25,13.75 C11.25,14.164 11.586,14.5 12,14.5 C12.414,14.5 12.75,14.164 12.75,13.75 L12.75,9.25 C12.75,8.836 12.414,8.5 12,8.5 Z M13,17.5 C13,16.948 12.552,16.5 12,16.5 C11.448,16.5 11,16.948 11,17.5 C11,18.052 11.448,18.5 12,18.5 C12.552,18.5 13,18.052 13,17.5 Z"/>
</svg>
